X:1
T:The Marquis of Tweeddale's Proclamation
M:C|
L:1/8
C:T. S. Macdonald
N:
N:If they found it would tend to the advancement of trade that an Act be paſsed for the encouragement of ſuch as ſhould acquire and eſtabliſh
N:a plantation in Africa or America, or any other part of the world where plantations might lawfully be acquired, His Majeſty was willing to
N:declare that he would grant to hiſ ſubjects in Scotland, in favour of their plantations, ſuch rights and privileges as he was accuſtomed to grant
N:to the ſubjects of his other dominions.
N:
N:Opening Addreſs given to Parliament by John Hay, First Marquis and Second Earl of Tweeddale and Lord Chancellor of Scotland
N:May 9, 1695
K:D
D<dc>d A<F D2 | e>f (g/f/)e/d/ c<ee>f | D<dc>d A<F D2 | E>e d/c/B/A/ d2 !turn!d2 |
D<dc>d A<F D2 | e>f g/f/e/d/ c/d/e/c/ A2 | D<dc>d B<dg>b | a>f (a/g/)f/e/ f<d d ||
f | a<df<d (A/B/)c/d/ e>f | g>fe>d c<ee>f | a<df<d (A/B/)c/d/ e>f | g<ba>g f<dd>f |
a<df<d e>cd>A | (3 Bcd A>F G<EE>F | D<dc>d B<dg>b | a>f (a/g/)f/e/ f<d d2 |]


